X: 100268
M: C|
L: 1/8
K: F
uC |\
uc |\
c>af>c B>ge>B | A>fc>A {e}d2 c2 | {c}B>AB>c {e}d>cd>e | (3fgf (3cde (3fed (3cBA |
c>af>c B>ge>B | A>fc>A {e}d2 c2 | {c}B>AB>c d>cd>e | (3fgf (3cde [f3A3] :|


